X: 239
T: Love Song (b)
C: Teton Sioux band 1911-1914
N: Derived from sioux234.krn
O: South Dakota, U.S.A.
N: Teton Sioux Music by Frances Densmore, 1918
Z: transcribed to **kern format by Craig Sapp
L: 1/8
M: 2/4
Q: 1/4=58
K: B clef=treble
%%linebreak <none>
A,4- [I:setbarnb 2]| 
A, G/ G/ A B ||  
[M:3/4]G3D/ D/ G D | 
C3B,/ B,/ C B,[K:clef=bass] ||  
[M:2/4]G,4- | 
G, C/ C/ D D | 
C3B,/ G,/ | 
B,2B,2 | 
G,4- | 
G,2z2 | 
G,4- | 
G, D/ D/ G G3// D// ||  
[M:3/4]D2D3C | 
D DB,2B,2 ||  
[M:2/4]G,4- | 
G, C/ C/ D D | 
C3B,/ G,/ | 
B,2B,2 | 
G,4- | 
G,4 |]  



